X: 46
T:Det st\aar ein friar uti gar'e
M:3/4
L:1/8
Q:320
C:trad.
R:Springdans?
O:Norway
Z:Transcribed by Frank Nordberg - http://www.musicaviva.com
K:F
z>C C>C|"F"F2A2 (3(GF)G|"F"F2E2D2|"C7"D2C2C2|"C7"C2:: z>A A>A|
w:Det st\aar ein fri- ar u-[ext] ti ga- r'e, mor lil- la. Hau hau! Kor m
an- ge
"Bb"B2B2A>G|"F"A4G>F|[1"C7"G2-G3/2F/ E>G|"F"c2:|[2"C7"G2-G3/2F/ (3(ED)E|
"F"F2||
w:pen- gar hav- er han, du mi dot- ter Da- li- a? dot- ter Da-[ext] li-
a?
|:z2 C2|"F"F2A2G2|"F"F2E2 D>D|"C7"D2C2C2|"C7"C2:: z2 A>A|
w:To hund- re riks- da- lar, sei- er han at han har. Sei han
"Bb"B4 A>G|"F"A4G>F|[1"C7"G2-G3/2F/ E>G|"F"c2:|[2"C7"G2-G3/2F/ (3(ED)E|"
F"F2|]
w:nei, vis han vei, du mi dot- ter Da- li- a! dot- ter Da-[ext] li- a!
w:Det st\aar ein friar uti gar'e, mor lilla. Hau hau!
W:Kor mange pengar haver han, du mi dotter Dalia?
w:Tre hundre riksdalar, seier han at han har.
W:Sei han nei, vis han vei, du mi dotter Dalia!
w:Det st\aar ein friar uti gar'e, mor lilla. Hau hau!
W:Kor mange pengar haver han, du mi dotter Dalia?
w:Fire hundre riksdalar, seier han at han har.
W:Sei han nei, vis han vei, du mi dotter Dalia!
w:Det st\aar ein friar uti gar'e, mor lilla. Hau hau!
W:Kor mange pengar haver han, du mi dotter Dalia?
w:Fem hundre riksdalar, seier han at han har.
W:Lat opp d\ora, slepp han inn, du mi dotter Dalia!
W:
W: From "Falaleiro" http://home.t-online.de/home/pheld/homepage.htm

